img/link-icon-mmorpg.svg

<svg width="650" height="650" viewBox="0 0 650 650" fill="none" xmlns="http://www.w3.org/2000/svg">
<rect width="650" height="650" fill="black"/>
<mask id="mask0_256_371" style="mask-type:luminance" maskUnits="userSpaceOnUse" x="63" y="140" width="193" height="395">
<path d="M63.4522 362.01C72.0649 526.061 234.885 534.674 234.885 534.674L255.802 486.279C255.802 486.279 141.786 441.985 148.348 321.818C154.911 201.651 253.341 164.739 253.341 164.739L241.447 140.542C56.4801 228.719 63.4522 362.01 63.4522 362.01Z" fill="white"/>
</mask>
<g mask="url(#mask0_256_371)">
<path d="M220.94 64.6689L405.907 465.773L91.3401 610.547L-93.627 209.854L220.94 64.6689Z" fill="#1A8DFF"/>
</g>
<mask id="mask1_256_371" style="mask-type:luminance" maskUnits="userSpaceOnUse" x="394" y="115" width="193" height="396">
<path d="M417.394 115.524L396.067 163.099C396.067 163.099 499.829 196.729 501.06 322.228C502.29 447.317 394.017 486.689 394.017 486.689L404.27 510.476C593.748 430.502 585.956 281.626 585.956 281.626C578.163 124.547 417.394 115.524 417.394 115.524Z" fill="white"/>
</mask>
<g mask="url(#mask1_256_371)">
<path d="M558.476 39.6514L743.853 441.165L428.876 586.35L243.499 184.836L558.476 39.6514Z" fill="#1A8DFF"/>
</g>
</svg>

<svg width="650" height="650" fill="none" xmlns="http://www.w3.org/2000/svg"><path fill="#000" d="M0 0H650V650H0z"/><mask id="a" style="mask-type:luminance" maskUnits="userSpaceOnUse" x="63" y="140" width="193" height="395"><path d="M63.452 362.01c8.613 164.051 171.433 172.664 171.433 172.664l20.917-48.395s-114.016-44.294-107.454-164.461c6.563-120.167 104.993-157.079 104.993-157.079l-11.894-24.197C56.48 228.719 63.452 362.01 63.452 362.01z" fill="#fff"/></mask><g mask="url(#a)"><path d="M220.94 64.669l184.967 401.104L91.34 610.547-93.627 209.854 220.94 64.669z" fill="#1A8DFF"/></g><mask id="b" style="mask-type:luminance" maskUnits="userSpaceOnUse" x="394" y="115" width="193" height="396"><path d="M417.394 115.524l-21.327 47.575s103.762 33.63 104.993 159.129c1.23 125.089-107.043 164.461-107.043 164.461l10.253 23.787c189.478-79.974 181.686-228.85 181.686-228.85-7.793-157.079-168.562-166.102-168.562-166.102z" fill="#fff"/></mask><g mask="url(#b)"><path d="M558.476 39.651l185.377 401.514L428.876 586.35 243.499 184.836 558.476 39.651z" fill="#1A8DFF"/></g></svg>
